assets/img/braze_icons/download-cloud-01.svg

<svg fill="none" height="24" viewBox="0 0 24 24" width="24" xmlns="http://www.w3.org/2000/svg"><path clip-rule="evenodd" d="m24 14c0-2.7989-1.9164-5.15013-4.5086-5.81319-1.1386-3.0304-4.0631-5.18681-7.4914-5.18681-3.03544 0-5.67602 1.69055-7.03159 4.18148-2.85077.68856-4.96841 3.25622-4.96841 6.31852 0 3.5899 2.91015 6.5 6.5 6.5h11.5c3.3137 0 6-2.6863 6-6zm-12-7c.5523 0 1 .44772 1 1v5.5858l2.2929-2.2929c.3905-.3905 1.0237-.3905 1.4142 0s.3905 1.0237 0 1.4142l-4 4c-.3905.3905-1.0237.3905-1.4142 0l-4.00001-4c-.39052-.3905-.39052-1.0237 0-1.4142.39053-.3905 1.02369-.3905 1.41422 0l2.29289 2.2929v-5.5858c0-.55228.4477-1 1-1z" fill="#801ed7" fill-rule="evenodd"/></svg>

<svg width="24" height="24" viewBox="0 0 24 24" fill="none" xmlns="http://www.w3.org/2000/svg">
<path fill-rule="evenodd" clip-rule="evenodd" d="M24 14C24 11.2011 22.0836 8.84987 19.4914 8.18681C18.3528 5.15641 15.4283 3 12 3C8.96456 3 6.32398 4.69055 4.96841 7.18148C2.11764 7.87004 0 10.4377 0 13.5C0 17.0899 2.91015 20 6.5 20H18C21.3137 20 24 17.3137 24 14ZM12 7C12.5523 7 13 7.44772 13 8V13.5858L15.2929 11.2929C15.6834 10.9024 16.3166 10.9024 16.7071 11.2929C17.0976 11.6834 17.0976 12.3166 16.7071 12.7071L12.7071 16.7071C12.3166 17.0976 11.6834 17.0976 11.2929 16.7071L7.29289 12.7071C6.90237 12.3166 6.90237 11.6834 7.29289 11.2929C7.68342 10.9024 8.31658 10.9024 8.70711 11.2929L11 13.5858V8C11 7.44772 11.4477 7 12 7Z" fill="#801ED7"/>
</svg>
